X:1
T:Irene (Scholefield), 77.75
T:Clement Cotterrill Scholefield, 1874
T:Irene (Scholefield), 77.75
T:Public Domain
C:Clement Cotterrill Scholefield, 1874
Z:Public Domain
%%score ( 1 2 ) ( 3 4 )
L:1/8
M:4/4
K:Ab
V:1 treble 
V:2 treble 
V:3 bass 
V:4 bass 
V:1
 [CE]2 E2 [DF]2 [DE]2 | [CA]2 [=DA]2 [EG]4 | [EB]2 [FB]2 [Ec]2 [Dd]2 | [EG]2 [EA]2 [EB]4 | %4
 [Ec]2 [Ec]2 [Ee]2 [Gd]2 | [Ac]2 [GB]2 A2- [EA]2 | [EF]2 (DC) [DA]2 [DG]2 | [CA]8 |] %8
V:2
 x2 E2 x4 | x8 | x8 | x8 | x8 | x8 | x2 A2 x4 | x8 |] %8
V:3
 [A,,A,]2 [C,A,]2 [D,A,]2 [E,G,]2 | [F,A,]2 [F,B,]2 [E,B,]4 | [E,G,]2 [D,F,]2 [C,=A,]2 [B,,B,]2 | %3
 [E,D]2 [F,C]2 [G,B,]4 | A,2 [A,C]2 [G,B,]2 [E,E]2 | [A,E]2 [E,D]2 [F,C]2 [C,A,]2 | %6
 [D,A,]2 [B,,B,]2 [E,B,]2 [E,B,]2 | [A,,A,]8 |] %8
V:4
 x8 | x8 | x8 | x8 | A,2 x6 | x8 | x8 | x8 |] %8

